X: 4
T: Jimmy's Return
R: reel
M: 4/4
L: 1/8
K: Bmin
|: f2Bc dfed | cAeA aece | f2Bc dfed | caec dBB2 || f2Bc dfed | cAce aecA | BcdB cdeg | faec dBBA :||: B2ba faed | cAeA aecA | B2ba faed | caec dBBA || B2ba faed | cAeA aecA | BcdB cdeg | faec dBB2 :|


Tune 1299	Setting 14608

